icons/svg/icons8/airport.svg

<svg width="26" height="26" viewBox="0 0 26 26" fill="none" xmlns="http://www.w3.org/2000/svg">
<path d="M9.61008 20.857C8.59308 21.872 7.82308 20.998 6.80808 19.984L6.01508 19.191C5.00108 18.177 4.12608 17.405 5.14008 16.39L19.1771 2.35599C20.1901 1.34099 24.1171 -0.915007 25.5161 0.483993C26.9151 1.88299 24.6601 5.80799 23.6441 6.82199L9.61008 20.857Z" fill="#333333"/>
<path d="M20.1102 18.286L17.9512 16.13L20.1552 13.927C20.6422 13.438 21.8262 13.061 22.5022 13.737C23.1792 14.412 22.8032 15.594 22.3112 16.083L20.1102 18.286Z" fill="#333333"/>
<path d="M7.82504 25.958L6.29004 19.647L10 15.938V23.824L7.82504 25.958Z" fill="#333333"/>
<path d="M0.0419922 18.175L6.35299 19.71L10.063 16H2.17599L0.0419922 18.175Z" fill="#333333"/>
<path d="M19.5991 25.832L15.3071 14.253L20.4921 9.06799L21.4861 23.986L19.5991 25.832Z" fill="#333333"/>
<path d="M7.71387 5.88999L9.86987 8.04899L12.0729 5.84499C12.5619 5.35799 12.9389 4.17399 12.2629 3.49799C11.5879 2.82099 10.4059 3.19699 9.91687 3.68899L7.71387 5.88999Z" fill="#333333"/>
<path d="M0.167969 6.40101L11.747 10.693L16.932 5.50801L2.01397 4.51401L0.167969 6.40101Z" fill="#333333"/>
</svg>

<?xml version="1.0" encoding="utf-8"?>
<!-- Generator: Adobe Illustrator 15.0.0, SVG Export Plug-In . SVG Version: 6.00 Build 0)  -->
<!DOCTYPE svg PUBLIC "-//W3C//DTD SVG 1.1//EN" "http://www.w3.org/Graphics/SVG/1.1/DTD/svg11.dtd">
<svg version="1.1" id="Layer_1" xmlns="http://www.w3.org/2000/svg" xmlns:xlink="http://www.w3.org/1999/xlink" x="0px" y="0px"
	 width="26px" height="26px" viewBox="0 0 26 26" enable-background="new 0 0 26 26" xml:space="preserve">
<rect fill="none" width="26" height="26"/>
<path fill="#333333" d="M9.61,20.857c-1.017,1.015-1.787,0.141-2.802-0.873l-0.793-0.793c-1.014-1.014-1.889-1.786-0.875-2.801
	L19.177,2.356c1.013-1.015,4.94-3.271,6.339-1.872s-0.856,5.324-1.872,6.338L9.61,20.857z"/>
<path fill="#333333" d="M20.11,18.286l-2.159-2.156l2.204-2.203c0.487-0.489,1.671-0.866,2.347-0.19
	c0.677,0.675,0.301,1.857-0.191,2.346L20.11,18.286z"/>
<polygon fill="#333333" points="7.825,25.958 6.29,19.647 10,15.938 10,23.824 "/>
<polygon fill="#333333" points="0.042,18.175 6.353,19.71 10.063,16 2.176,16 "/>
<polygon fill="#333333" points="19.599,25.832 15.307,14.253 20.492,9.068 21.486,23.986 "/>
<path fill="#333333" d="M7.714,5.89L9.87,8.049l2.203-2.204c0.489-0.487,0.866-1.671,0.19-2.347
	c-0.675-0.677-1.857-0.301-2.346,0.191L7.714,5.89z"/>
<polygon fill="#333333" points="0.168,6.401 11.747,10.693 16.932,5.508 2.014,4.514 "/>
</svg>
